src/assets/images/press/03.svg

<svg width="144" height="48" viewBox="0 0 144 48" fill="none" xmlns="http://www.w3.org/2000/svg">
<path fill-rule="evenodd" clip-rule="evenodd" d="M19.8772 0.108575C15.5275 0.643168 10.7405 2.87874 6.65812 6.3293C5.83193 7.00969 4.10665 8.68637 4.10665 8.78356C4.10665 8.83216 4.93284 9.70695 5.95343 10.7275L7.8002 12.5986L7.02261 13.4734C4.15525 16.7053 2.21127 19.9857 1.04489 23.4606C0.315895 25.6476 0 27.4457 0 29.4626C0 31.2851 0.242996 32.7674 0.801889 34.201L1.02059 34.7842L6.43942 40.2031C10.9592 44.7228 11.9798 45.6948 12.5386 46.0593C13.705 46.8369 15.0658 47.3715 16.5724 47.6874C17.5687 47.9061 19.8772 47.979 20.9706 47.8332C25.296 47.2986 29.7671 45.2574 33.6794 42.0013C34.7 41.1508 36.4252 39.5227 36.4252 39.4255C36.4252 39.3769 35.5748 38.5021 34.5542 37.4572L32.6831 35.5618L33.2663 34.9543C34.7 33.4478 36.4496 31.0421 37.4701 29.1467C38.9281 26.498 39.8758 23.6307 40.1917 21.0063C40.3132 19.8642 40.2403 17.4343 40.0459 16.5109C39.7057 14.9557 39.1711 13.6921 38.3692 12.4771C37.9561 11.8453 37.1299 10.9948 32.5616 6.4022L27.2157 1.05627L26.6568 0.837566C25.9035 0.52167 24.3483 0.157175 23.4006 0.0599763C22.4529 -0.0372225 20.9706 -0.0129235 19.8772 0.108575ZM24.4698 1.54226C24.8586 1.63946 25.4904 1.78526 25.8306 1.90675C26.4624 2.12545 26.4867 2.12545 27.483 3.12174C28.3577 3.99653 28.4792 4.11803 28.2605 4.09373C27.0942 3.87503 25.2231 3.82643 23.7651 4.02083C19.0996 4.60402 14.2882 6.96109 9.86568 10.849C9.42828 11.2378 9.03949 11.578 8.96659 11.6266C8.89369 11.6752 8.50489 11.3593 7.36281 10.2172L5.85623 8.71067L6.82821 7.86018C10.8863 4.31242 15.3574 2.07685 19.7314 1.44506C20.8977 1.27496 23.4978 1.34786 24.4698 1.54226ZM30.8363 9.26956C32.9747 9.58545 34.8458 10.5088 36.2309 11.8939C37.5916 13.2547 38.4664 15.0043 38.8795 17.1913C39.0496 18.1632 39.0496 20.3502 38.8795 21.4923C38.3206 25.0158 36.6925 28.6364 34.1654 31.9412C33.5822 32.7188 32.1971 34.3468 31.9784 34.5169C31.8569 34.6141 31.7111 34.4926 30.4475 33.2291C29.6699 32.4515 29.0381 31.7954 29.0381 31.7711C29.0381 31.7468 29.2568 31.4795 29.5241 31.1879C33.9224 26.3279 35.9879 20.253 34.5299 16.4866C33.9467 15.0286 32.7317 13.9351 31.1522 13.4491C30.3503 13.2061 28.9409 13.0846 27.8961 13.2061C26.2923 13.3519 24.324 13.9837 22.4286 14.9071C20.5332 15.8305 18.808 16.9969 17.1313 18.5034L16.378 19.1595L14.9443 17.7259L13.5106 16.2922L14.1181 15.7333C17.836 12.2584 22.7688 9.77985 26.997 9.22096C27.8475 9.14806 30.0344 9.14806 30.8363 9.26956ZM10.7405 17.653C10.2059 18.2604 9.52548 19.1109 9.18528 19.5483C5.15153 24.9186 3.30476 30.7505 4.05805 35.7805L4.10665 36.0964L3.11036 35.1244C2.16267 34.201 2.11407 34.1281 1.91968 33.545C0.0243 28.1018 2.40567 20.5932 8.0189 14.2996L8.67499 13.5706L10.1816 15.0772L11.6882 16.5838L10.7405 17.653ZM29.7185 14.5426L29.9129 14.5912L29.8643 15.6118C29.8157 16.8268 29.6456 17.8231 29.4026 18.6735C28.625 21.225 27.1914 23.7765 25.1016 26.1821L24.2997 27.1055L22.7688 25.5747L21.2379 24.0438L21.9426 23.2662C23.4492 21.6138 24.8343 19.6941 25.6848 18.0661C26.1465 17.1913 26.754 15.709 26.9241 15.0286C27.0213 14.6155 27.0213 14.6155 27.3858 14.5669C27.5802 14.5426 27.7989 14.5183 27.8718 14.494C28.0662 14.494 29.5484 14.494 29.7185 14.5426ZM25.3689 15.6118C25.0287 16.5595 24.2754 18.0174 23.5464 19.1109C22.7445 20.3259 22.1856 21.0549 21.0678 22.3185L20.2902 23.2176L18.7594 21.6867L17.2285 20.1558L17.7388 19.6941C19.3183 18.2847 21.165 17.0212 22.866 16.1464C23.7894 15.6847 25.296 15.0772 25.5147 15.0529C25.539 15.0529 25.4904 15.2959 25.3689 15.6118ZM48.648 16.5352C48.5751 16.6081 48.5508 18.6249 48.5508 26.012C48.5508 35.0029 48.5508 35.3917 48.6966 35.5132C48.8181 35.6347 49.2069 35.6347 52.4873 35.6347C54.4799 35.6347 56.6426 35.5861 57.2744 35.5618C59.8259 35.3917 61.7941 34.5655 63.3007 33.059C64.4914 31.8683 65.2447 30.2159 65.6335 28.0289C65.8036 26.9597 65.8036 24.7242 65.6335 23.6793C65.0017 20.1558 62.9848 17.8717 59.753 16.9483C58.1735 16.5109 58.052 16.4866 53.2406 16.4623C49.6686 16.4623 48.7209 16.4623 48.648 16.5352ZM137.123 16.8511C137.05 16.924 137.026 17.5315 137.026 19.0866V21.225H136.103C135.495 21.225 135.155 21.2493 135.082 21.3222C134.961 21.4437 134.961 23.9709 135.082 24.1167C135.155 24.1896 135.495 24.2139 136.103 24.2139H137.026L137.05 28.5392C137.075 32.7674 137.075 32.8889 137.245 33.3749C137.706 34.7113 138.654 35.4403 140.185 35.6347C141.23 35.7562 142.712 35.7076 143.733 35.5132L143.951 35.4646L143.927 33.6908L143.903 31.9169L142.931 31.8683C141.886 31.8197 141.716 31.7711 141.594 31.5524C141.546 31.4552 141.521 29.9972 141.521 27.8345V24.2625L142.761 24.2382L144 24.2139V22.7316V21.2493L142.761 21.225L141.521 21.2007V19.1109C141.521 17.8231 141.497 16.9726 141.449 16.8754C141.376 16.7296 141.254 16.7296 139.31 16.7296C137.779 16.7782 137.196 16.8025 137.123 16.8511ZM57.5903 20.9577C59.0726 21.3465 60.0446 22.3914 60.4333 23.9223C60.7249 25.0887 60.7249 27.0326 60.409 28.2476C60.0932 29.4383 59.3642 30.386 58.3922 30.8477C57.5417 31.2608 57.0314 31.3337 55.2818 31.3823L53.7023 31.4309V26.085V20.739L55.4033 20.7876C56.6426 20.8119 57.2501 20.8605 57.5903 20.9577ZM72.4374 21.0549C70.0074 21.4923 68.1364 23.0961 67.3102 25.4289C66.2167 28.4906 66.7513 31.9898 68.5981 33.9581C69.57 34.9786 70.4934 35.5132 71.9028 35.8777C74.6001 36.5581 77.4917 35.8534 79.4114 34.0552C79.8731 33.6422 81.0638 32.1356 81.0638 31.9898C81.0638 31.8197 80.7236 31.601 79.3385 30.8963C78.488 30.4589 77.7833 30.0944 77.759 30.0944C77.7347 30.0944 77.5889 30.3131 77.4431 30.5804C77.1029 31.2365 76.3983 31.9655 75.888 32.2328C74.3571 32.9861 72.5589 32.5487 71.7813 31.2365C71.5626 30.8477 71.3439 30.1673 71.3439 29.8028V29.5355H76.2038C79.8731 29.5355 81.0638 29.5112 81.1367 29.4383C81.2582 29.3168 81.2582 28.3448 81.1124 27.3728C80.7236 24.7728 79.6301 22.9017 77.8805 21.8568C77.2973 21.5166 76.1796 21.1278 75.4506 21.0063C74.7216 20.8848 73.1664 20.9091 72.4374 21.0549ZM88.4023 20.9577C87.7219 21.0549 87.163 21.1764 86.7256 21.3222C84.2713 22.0998 82.6433 24.1167 82.133 26.984C81.9386 28.0775 82.0115 29.8271 82.2788 30.872C82.6433 32.2814 83.1779 33.2048 84.1499 34.1282C85.0003 34.93 85.9966 35.4889 87.3331 35.8534C87.7219 35.9749 88.1107 35.9992 89.107 35.9992C90.2491 35.9992 90.4192 35.9749 91.051 35.7805C92.3146 35.3917 93.2865 34.8085 94.1613 33.8852C94.7445 33.2777 95.4006 32.3786 95.4006 32.1842C95.4006 32.1113 95.2791 31.9898 95.1576 31.8926C94.6473 31.5767 92.2903 30.4103 92.1688 30.4103C92.0959 30.4103 91.9744 30.5804 91.8529 30.8234C91.5613 31.4552 91.1725 31.8683 90.565 32.1599C90.1033 32.3786 89.9575 32.4272 89.4472 32.4029C88.7668 32.4029 88.3294 32.2328 87.7705 31.7468C86.3125 30.4589 86.2153 26.8868 87.6004 25.2588C88.4752 24.2382 90.1033 24.2382 91.1482 25.2345C91.3183 25.4046 91.5613 25.7205 91.6828 25.9392C91.8043 26.1578 91.9501 26.3522 92.023 26.3522C92.1931 26.4008 95.1819 24.6756 95.2305 24.5055C95.2548 24.3597 94.9389 23.8737 94.4772 23.2905C93.7239 22.3671 92.2417 21.468 90.9538 21.1764C90.2977 21.0063 88.8883 20.9091 88.4023 20.9577ZM127.379 21.1278C126.577 21.2736 125.848 21.5652 125.265 22.0026L124.803 22.3428L124.779 21.8568L124.755 21.3708L122.884 21.3465C121.231 21.3222 120.988 21.3465 120.867 21.468C120.721 21.5895 120.721 21.954 120.721 30.9449C120.721 38.1133 120.745 40.3003 120.818 40.3732C120.964 40.519 125.046 40.519 125.168 40.3732C125.241 40.3003 125.265 39.5713 125.265 37.603V34.93L126.018 35.3188C127.039 35.8291 127.671 35.9506 128.861 35.902C130.246 35.8291 131.073 35.5618 131.972 34.8814C133.235 33.9338 134.061 32.4758 134.523 30.4589C134.766 29.3897 134.766 27.5186 134.523 26.3765C134.207 24.87 133.697 23.8494 132.774 22.8774C131.413 21.3708 129.42 20.7633 127.379 21.1278ZM17.7874 22.5615C19.0996 23.8737 19.1725 23.9709 19.0753 24.1167C19.0024 24.1896 18.6865 24.5541 18.3463 24.9429C16.9855 26.498 15.7219 28.3934 14.8714 30.143C14.2639 31.3823 13.8994 32.4029 13.5349 33.788C13.0732 35.6104 13.0732 37.6273 13.5835 39.0367C14.5312 41.7097 17.0341 42.9732 20.5332 42.5601C23.9109 42.147 27.7989 40.2031 31.1279 37.2628L31.8326 36.631L33.2663 38.0647L34.7 39.4984L34.0925 40.0573C30.9821 42.9489 26.8269 45.306 23.2305 46.1808C21.7725 46.5453 20.7519 46.6668 19.3669 46.6668C17.5201 46.6668 16.1593 46.4238 14.7256 45.792C12.8788 44.9901 11.1779 43.4106 10.3031 41.6611C9.20959 39.4984 8.89369 36.8254 9.37968 33.9338C10.0601 29.9 12.3199 25.5747 15.649 21.8568C15.9892 21.468 16.3051 21.1521 16.3294 21.1521C16.3537 21.1521 17.0098 21.7839 17.7874 22.5615ZM104.246 21.2493C103.298 21.3951 102.107 21.8325 101.33 22.3428L101.087 22.5129V22.0026C101.087 21.711 101.038 21.468 100.99 21.3951C100.917 21.3222 100.358 21.2979 98.9241 21.2979C97.1259 21.2979 96.9315 21.2979 96.8343 21.4437C96.7128 21.5652 96.7128 22.1727 96.7128 28.4906C96.7128 35.0758 96.7128 35.3917 96.8586 35.5132C96.9801 35.6347 97.2474 35.6347 98.997 35.6347C100.552 35.6347 101.014 35.6104 101.087 35.5375C101.135 35.4646 101.184 34.031 101.184 31.0907C101.208 27.0083 101.208 26.7167 101.354 26.4494C101.646 25.8663 102.156 25.6233 103.638 25.3803C104.197 25.2831 104.756 25.1859 104.877 25.1616L105.096 25.113V23.2176C105.096 21.3222 105.072 21.1035 104.829 21.1521C104.732 21.1764 104.489 21.2007 104.246 21.2493ZM106.238 21.4194C106.19 21.4923 106.165 21.6138 106.19 21.7353C106.214 21.8325 106.87 23.9709 107.648 26.4494C110.758 36.4609 110.588 35.8777 110.369 36.2665C110.175 36.6553 109.835 36.7282 108.62 36.7282C107.866 36.7282 107.478 36.7525 107.429 36.8254C107.356 36.8983 107.332 37.3843 107.332 38.575C107.332 39.7657 107.356 40.2517 107.429 40.3246C107.55 40.4461 110.637 40.4461 111.438 40.3489C112.775 40.1545 113.868 39.2068 114.5 37.7002C114.646 37.3843 115.885 33.6179 117.27 29.3411C119.384 22.8774 119.798 21.5409 119.7 21.4437C119.627 21.3465 119.263 21.3222 117.343 21.3222H115.083L115.01 21.6624C114.962 21.8568 114.5 23.8737 113.966 26.1821C113.431 28.4906 112.994 30.4103 112.945 30.4346C112.921 30.4589 112.41 28.4177 111.852 25.9149L110.807 21.3222H108.547C106.676 21.3222 106.311 21.3222 106.238 21.4194ZM75.2076 24.4569C75.9366 24.7971 76.4226 25.4532 76.5684 26.255L76.617 26.5466H74.0169H71.4168L71.4654 26.3036C71.5626 25.8663 71.9757 25.1616 72.3159 24.87C72.8991 24.3597 73.4094 24.1896 74.2113 24.2382C74.6001 24.2625 74.8917 24.3354 75.2076 24.4569ZM128.837 24.5784C129.517 24.9429 130.028 25.6962 130.271 26.7167C130.441 27.47 130.441 29.2682 130.246 30.0215C130.076 30.6776 129.736 31.358 129.372 31.8197C128.788 32.5244 127.646 32.7188 126.723 32.2571C125.654 31.7225 125.143 30.5318 125.143 28.5392C125.143 26.6924 125.629 25.3803 126.529 24.7242C127.233 24.2382 128.084 24.1896 128.837 24.5784ZM22.5501 28.5149C20.5575 30.386 18.0061 32.0627 15.892 32.9132C15.4546 33.0833 15.0658 33.2291 15.0415 33.2291C15.0172 33.2291 15.1144 32.9618 15.2359 32.6216C16.1593 30.0701 17.7631 27.47 19.6828 25.4046L20.1444 24.9186L21.6753 26.4251L23.2062 27.9317L22.5501 28.5149ZM25.6119 30.4103L27.0942 31.8926L26.6325 32.33C24.2025 34.6141 20.4603 36.6796 17.8117 37.2385C17.1556 37.3843 15.6976 37.5301 14.9929 37.5301H14.5312V36.4123C14.5312 35.8048 14.5555 35.1487 14.5798 35.0029L14.6284 34.7113L15.5761 34.3954C17.9818 33.6179 21.0435 31.6982 23.3034 29.5598C23.6679 29.2196 24.0081 28.928 24.0567 28.928C24.1053 28.928 24.81 29.5841 25.6119 30.4103Z" fill="#1D1D1B"/>
</svg>

<svg width="144" height="48" fill="none" xmlns="http://www.w3.org/2000/svg"><path fill-rule="evenodd" clip-rule="evenodd" d="M19.877.109c-4.35.534-9.136 2.77-13.219 6.22-.826.68-2.551 2.357-2.551 2.455 0 .048.826.923 1.846 1.943L7.8 12.6l-.777.874c-2.868 3.232-4.812 6.513-5.978 9.988C.315 25.648 0 27.446 0 29.463c0 1.822.243 3.304.802 4.738l.219.583 5.418 5.42c4.52 4.519 5.54 5.49 6.1 5.855 1.166.778 2.527 1.313 4.033 1.628.997.22 3.305.292 4.399.146 4.325-.534 8.796-2.576 12.708-5.832 1.021-.85 2.746-2.478 2.746-2.575 0-.05-.85-.924-1.87-1.969l-1.872-1.895.583-.608c1.434-1.506 3.184-3.912 4.204-5.807 1.458-2.649 2.406-5.516 2.722-8.14.121-1.143.048-3.573-.146-4.496-.34-1.555-.875-2.819-1.677-4.034-.413-.632-1.24-1.482-5.807-6.075l-5.346-5.346-.56-.218c-.752-.316-2.308-.68-3.255-.778-.948-.097-2.43-.073-3.524.049zm4.593 1.433c.389.097 1.02.243 1.36.365.632.218.657.218 1.653 1.215.875.875.996.996.777.972-1.166-.219-3.037-.268-4.495-.073-4.665.583-9.477 2.94-13.9 6.828-.437.389-.826.729-.898.778-.073.048-.462-.268-1.604-1.41L5.856 8.711l.972-.85c4.058-3.549 8.53-5.784 12.903-6.416 1.167-.17 3.767-.097 4.739.097zm6.366 7.728c2.139.315 4.01 1.239 5.395 2.624 1.36 1.36 2.235 3.11 2.648 5.297.17.972.17 3.16 0 4.301-.558 3.524-2.186 7.144-4.714 10.45-.583.777-1.968 2.405-2.187 2.575-.121.097-.267-.024-1.53-1.288-.778-.777-1.41-1.434-1.41-1.458 0-.024.219-.291.486-.583 4.398-4.86 6.464-10.935 5.006-14.701-.583-1.458-1.798-2.552-3.378-3.038-.802-.243-2.211-.364-3.256-.243-1.604.146-3.572.778-5.467 1.701-1.896.924-3.621 2.09-5.298 3.596l-.753.657-1.434-1.434-1.433-1.434.607-.559c3.718-3.475 8.65-5.953 12.879-6.512.85-.073 3.037-.073 3.84.049zm-20.095 8.383a46.928 46.928 0 00-1.556 1.895c-4.033 5.37-5.88 11.203-5.127 16.233l.049.315-.997-.972c-.947-.923-.996-.996-1.19-1.579-1.896-5.443.486-12.952 6.099-19.245l.656-.73 1.507 1.507 1.506 1.507-.947 1.069zm18.977-3.11l.195.048-.049 1.02c-.048 1.216-.218 2.212-.461 3.063-.778 2.551-2.212 5.102-4.301 7.508l-.802.924-1.531-1.531-1.531-1.531.705-.778c1.506-1.652 2.891-3.572 3.742-5.2.462-.875 1.069-2.357 1.24-3.037.096-.413.096-.413.46-.462.195-.024.414-.049.487-.073.194 0 1.676 0 1.846.049zm-4.35 1.069c-.34.947-1.093 2.405-1.822 3.499-.802 1.215-1.36 1.944-2.478 3.207l-.778.9-1.53-1.531-1.532-1.531.51-.462c1.58-1.41 3.427-2.673 5.128-3.548.923-.461 2.43-1.069 2.649-1.093.024 0-.025.243-.146.559zm23.28.923c-.073.073-.097 2.09-.097 9.477 0 8.99 0 9.38.146 9.501.121.122.51.122 3.79.122 1.993 0 4.156-.049 4.787-.073 2.552-.17 4.52-.996 6.027-2.503 1.19-1.19 1.944-2.843 2.332-5.03.17-1.07.17-3.305 0-4.35-.631-3.523-2.648-5.807-5.88-6.73-1.58-.438-1.701-.462-6.512-.487-3.572 0-4.52 0-4.593.073zm88.475.316c-.073.073-.097.68-.097 2.236v2.138h-.923c-.608 0-.948.024-1.021.097-.121.122-.121 2.649 0 2.795.073.073.413.097 1.021.097h.923l.024 4.325c.025 4.228.025 4.35.195 4.836.461 1.336 1.409 2.065 2.94 2.26 1.045.121 2.527.073 3.548-.122l.218-.048-.024-1.774-.024-1.774-.972-.049c-1.045-.048-1.215-.097-1.337-.316-.048-.097-.073-1.555-.073-3.718v-3.572l1.24-.024 1.239-.024v-2.965l-1.239-.024-1.24-.024v-2.09c0-1.288-.024-2.138-.072-2.236-.073-.145-.195-.145-2.139-.145-1.531.048-2.114.072-2.187.121zM57.59 20.958c1.483.389 2.455 1.433 2.843 2.964.292 1.167.292 3.11-.024 4.326-.316 1.19-1.045 2.138-2.017 2.6-.85.413-1.36.486-3.11.534l-1.58.049V20.739l1.701.049c1.24.024 1.847.072 2.187.17zm14.847.097c-2.43.437-4.3 2.041-5.127 4.374-1.093 3.062-.559 6.56 1.288 8.53.972 1.02 1.895 1.554 3.305 1.919 2.697.68 5.589-.025 7.508-1.823.462-.413 1.653-1.92 1.653-2.065 0-.17-.34-.389-1.725-1.094-.851-.437-1.556-.802-1.58-.802-.024 0-.17.22-.316.486-.34.657-1.045 1.386-1.555 1.653-1.53.753-3.33.316-4.107-.996-.218-.39-.437-1.07-.437-1.434v-.268h4.86c3.67 0 4.86-.024 4.933-.097.121-.121.121-1.093-.025-2.065-.388-2.6-1.482-4.471-3.231-5.516-.584-.34-1.701-.73-2.43-.85-.73-.122-2.285-.098-3.014.048zm15.965-.097c-.68.097-1.239.218-1.676.364-2.455.778-4.083 2.795-4.593 5.662-.194 1.093-.121 2.843.146 3.888.364 1.41.899 2.333 1.87 3.256.851.802 1.848 1.36 3.184 1.725.389.122.778.146 1.774.146 1.142 0 1.312-.024 1.944-.218 1.264-.39 2.236-.972 3.11-1.896.584-.607 1.24-1.506 1.24-1.7 0-.074-.122-.195-.243-.292-.51-.316-2.868-1.483-2.99-1.483-.072 0-.194.17-.315.413-.292.632-.68 1.045-1.288 1.337-.462.219-.608.267-1.118.243-.68 0-1.118-.17-1.677-.656-1.457-1.288-1.555-4.86-.17-6.488.875-1.02 2.503-1.02 3.548-.024.17.17.413.486.535.704.121.219.267.413.34.413.17.049 3.159-1.676 3.208-1.846.024-.146-.292-.632-.754-1.215-.753-.924-2.235-1.823-3.523-2.115-.656-.17-2.066-.267-2.552-.218zm38.977.17c-.802.146-1.531.437-2.114.875l-.462.34-.024-.486-.024-.486-1.871-.024c-1.653-.025-1.896 0-2.017.121-.146.122-.146.486-.146 9.477 0 7.168.024 9.355.097 9.428.146.146 4.228.146 4.35 0 .073-.073.097-.802.097-2.77V34.93l.753.389c1.021.51 1.653.632 2.843.583 1.385-.073 2.212-.34 3.111-1.02 1.263-.948 2.089-2.406 2.551-4.423.243-1.07.243-2.94 0-4.082-.316-1.507-.826-2.528-1.749-3.5-1.361-1.506-3.354-2.114-5.395-1.75zM17.787 22.56c1.313 1.313 1.386 1.41 1.288 1.556-.073.073-.389.437-.729.826-1.36 1.555-2.624 3.45-3.475 5.2-.607 1.24-.972 2.26-1.336 3.645-.462 1.822-.462 3.84.049 5.249.947 2.673 3.45 3.936 6.95 3.523 3.377-.413 7.265-2.357 10.594-5.297l.705-.632 1.433 1.434 1.434 1.433-.608.56c-3.11 2.89-7.265 5.248-10.861 6.123-1.459.364-2.48.486-3.864.486-1.847 0-3.208-.243-4.641-.875-1.847-.802-3.548-2.381-4.423-4.13-1.093-2.164-1.41-4.837-.923-7.728.68-4.034 2.94-8.36 6.269-12.077.34-.389.656-.705.68-.705.025 0 .68.632 1.458 1.41zm86.459-1.312c-.948.146-2.139.584-2.916 1.094l-.243.17v-.51c0-.292-.049-.535-.097-.608-.073-.073-.632-.097-2.066-.097-1.798 0-1.993 0-2.09.146-.121.121-.121.729-.121 7.047 0 6.585 0 6.9.146 7.022.121.122.388.122 2.138.122 1.555 0 2.017-.025 2.09-.097.048-.073.097-1.507.097-4.447.024-4.083.024-4.374.17-4.642.292-.583.802-.826 2.284-1.069.559-.097 1.118-.194 1.239-.218l.219-.049v-1.895c0-1.896-.024-2.114-.267-2.066-.097.024-.34.049-.583.097zm1.992.17c-.048.073-.073.195-.048.316.024.098.68 2.236 1.458 4.714 3.11 10.012 2.94 9.429 2.721 9.817-.194.39-.534.462-1.749.462-.754 0-1.142.024-1.191.097-.073.073-.097.56-.097 1.75s.024 1.677.097 1.75c.121.121 3.208.121 4.009.024 1.337-.194 2.43-1.142 3.062-2.649.146-.316 1.385-4.082 2.77-8.359 2.114-6.464 2.528-7.8 2.43-7.897-.073-.098-.437-.122-2.357-.122h-2.26l-.073.34c-.048.195-.51 2.212-1.044 4.52-.535 2.309-.972 4.228-1.021 4.253-.024.024-.535-2.017-1.093-4.52l-1.045-4.593h-2.26c-1.871 0-2.236 0-2.309.097zm-31.03 3.038c.729.34 1.215.996 1.36 1.798l.049.292h-5.2l.048-.243c.098-.438.51-1.142.85-1.434.584-.51 1.094-.68 1.896-.632.39.024.68.097.997.219zm53.629.121c.68.365 1.191 1.118 1.434 2.139.17.753.17 2.551-.025 3.305a5.178 5.178 0 01-.874 1.798c-.584.704-1.726.899-2.649.437-1.069-.534-1.58-1.725-1.58-3.718 0-1.847.486-3.159 1.386-3.815a2.199 2.199 0 012.308-.146zM22.55 28.515c-1.992 1.871-4.544 3.548-6.658 4.398-.437.17-.826.316-.85.316-.025 0 .072-.267.194-.607.923-2.552 2.527-5.152 4.447-7.217l.461-.486 1.531 1.506 1.531 1.507-.656.583zm3.062 1.895l1.482 1.483-.462.437c-2.43 2.284-6.172 4.35-8.82 4.909-.656.145-2.114.291-2.82.291h-.46v-1.118c0-.607.024-1.263.048-1.41l.048-.29.948-.317c2.406-.777 5.468-2.697 7.727-4.835.365-.34.705-.632.754-.632.048 0 .753.656 1.555 1.482z" fill="#1D1D1B"/></svg>
